icons/surrealdb-dark.svg

<svg width="256" height="256" viewBox="0 0 256 256" fill="none" xmlns="http://www.w3.org/2000/svg">
<path d="M196 0H60C26.8629 0 0 26.8629 0 60V196C0 229.137 26.8629 256 60 256H196C229.137 256 256 229.137 256 196V60C256 26.8629 229.137 0 196 0Z" fill="#282828"/>
<g clip-path="url(#clip0_85_152)">
<path d="M127.5 81.3022L173.882 107.013V96.7048L127.5 71.0537C120.601 74.8745 87.261 93.3218 81.1177 96.7048C86.8236 99.8689 146.745 133.002 183.167 153.141V163.41C178.216 166.156 127.5 194.195 127.5 194.195C113.623 186.533 85.6904 171.091 71.8333 163.41V132.624L127.5 163.41L136.784 158.275L62.5489 117.242V168.564L127.5 204.463C133.902 200.921 187.7 171.171 192.431 168.544V148.027L99.6667 96.7048L127.5 81.3022ZM62.5489 86.4364V106.973L155.313 158.295L127.48 173.698L81.0979 147.987V158.295L127.48 183.946C134.379 180.126 167.719 161.678 173.862 158.295C168.157 155.131 108.255 121.998 71.8333 101.839V91.5706C76.7837 88.8244 127.5 60.7853 127.5 60.7853C141.357 68.4667 169.29 83.9091 183.167 91.5706V122.356L127.5 91.5706L118.216 96.7048L192.431 137.758V86.4364L127.5 50.5169C121.078 54.079 67.3005 83.8295 62.5489 86.4364ZM127.5 30L44 76.1879V178.812L127.5 225L211 178.832V76.1879L127.5 30ZM201.696 173.678L127.5 214.732L53.2844 173.678V81.3221L127.5 40.2684L201.716 81.3221L201.696 173.678Z" fill="url(#paint0_linear_85_152)"/>
</g>
<defs>
<linearGradient id="paint0_linear_85_152" x1="84.4275" y1="52.8247" x2="170.705" y2="202.119" gradientUnits="userSpaceOnUse">
<stop stop-color="#FF00A0"/>
<stop offset="1" stop-color="#9600FF"/>
</linearGradient>
<clipPath id="clip0_85_152">
<rect width="167" height="195" fill="white" transform="translate(44 30)"/>
</clipPath>
</defs>
</svg>

<svg xmlns="http://www.w3.org/2000/svg" width="256" height="256" fill="none"><path fill="#282828" d="M196 0H60C26.863 0 0 26.863 0 60v136c0 33.137 26.863 60 60 60h136c33.137 0 60-26.863 60-60V60c0-33.137-26.863-60-60-60"/><g clip-path="url(#clip0_85_152)"><path fill="url(#paint0_linear_85_152)" d="m127.5 81.302 46.382 25.711V96.705L127.5 71.054c-6.899 3.82-40.239 22.268-46.382 25.65 5.706 3.165 65.627 36.298 102.049 56.437v10.269c-4.951 2.746-55.667 30.785-55.667 30.785a51370 51370 0 0 1-55.667-30.785v-30.786L127.5 163.41l9.284-5.135-74.235-41.033v51.322l64.951 35.899c6.402-3.542 60.2-33.292 64.931-35.919v-20.517L99.667 96.705zm-64.951 5.134v20.537l92.764 51.322-27.833 15.403-46.382-25.711v10.308l46.382 25.651a56599 56599 0 0 1 46.382-25.651c-5.705-3.164-65.607-36.297-102.029-56.456V91.571c4.95-2.747 55.667-30.786 55.667-30.786 13.857 7.682 41.79 23.124 55.667 30.786v30.785L127.5 91.571l-9.284 5.134 74.215 41.053V86.436L127.5 50.516c-6.422 3.563-60.2 33.314-64.951 35.92M127.5 30 44 76.188v102.624L127.5 225l83.5-46.168V76.188zm74.196 143.678L127.5 214.732l-74.216-41.054V81.322L127.5 40.268l74.216 41.054z"/></g><defs><linearGradient id="paint0_linear_85_152" x1="84.427" x2="170.705" y1="52.825" y2="202.119" gradientUnits="userSpaceOnUse"><stop stop-color="#FF00A0"/><stop offset="1" stop-color="#9600FF"/></linearGradient><clipPath id="clip0_85_152"><path fill="#fff" d="M44 30h167v195H44z"/></clipPath></defs></svg>
